packages/uplink-client/public/uplink-logo.svg

<svg width="166" height="50" viewBox="0 0 166 50" fill="none" xmlns="http://www.w3.org/2000/svg">
<g clip-path="url(#clip0_1179_1413)">
<path d="M67.5 3H22.5V10.5H67.5V3Z" fill="#FF638D"/>
<path d="M120 3H75V10.5H120V3Z" fill="#CC0595"/>
<path d="M30 10.5H22.5V18H30V10.5Z" fill="#FF638D"/>
<path d="M45 10.5H30V18H45V10.5Z" fill="white"/>
<path d="M60 10.5H45V18H60V10.5Z" fill="black"/>
<path d="M67.5 10.5H60V18H67.5V10.5Z" fill="#FF638D"/>
<path d="M82.5 10.5H75V18H82.5V10.5Z" fill="#CC0595"/>
<path d="M97.5 10.5H82.5V18H97.5V10.5Z" fill="white"/>
<path d="M112.5 10.5H97.5V18H112.5V10.5Z" fill="black"/>
<path d="M120 10.5H112.5V18H120V10.5Z" fill="#CC0595"/>
<path d="M22.5 18H0V25.5H22.5V18Z" fill="#CC0595"/>
<path d="M30 18H22.5V25.5H30V18Z" fill="#FF638D"/>
<path d="M45 18H30V25.5H45V18Z" fill="white"/>
<path d="M60 18H45V25.5H60V18Z" fill="black"/>
<path d="M67.5 18H60V25.5H67.5V18Z" fill="#FF638D"/>
<path d="M82.5 18H67.5V25.5H82.5V18Z" fill="#CC0595"/>
<path d="M97.5 18H82.5V25.5H97.5V18Z" fill="white"/>
<path d="M112.5 18H97.5V25.5H112.5V18Z" fill="black"/>
<path d="M120 18H112.5V25.5H120V18Z" fill="#CC0595"/>
<path d="M7.5 25.5H0V33H7.5V25.5Z" fill="#CC0595"/>
<path d="M30 25.5H22.5V33H30V25.5Z" fill="#FF638D"/>
<path d="M45 25.5H30V33H45V25.5Z" fill="white"/>
<path d="M60 25.5H45V33H60V25.5Z" fill="black"/>
<path d="M67.5 25.5H60V33H67.5V25.5Z" fill="#FF638D"/>
<path d="M82.5 25.5H75V33H82.5V25.5Z" fill="#CC0595"/>
<path d="M97.5 25.5H82.5V33H97.5V25.5Z" fill="white"/>
<path d="M112.5 25.5H97.5V33H112.5V25.5Z" fill="black"/>
<path d="M120 25.5H112.5V33H120V25.5Z" fill="#CC0595"/>
<path d="M7.5 33H0V40.5H7.5V33Z" fill="#CC0595"/>
<path d="M30 33H22.5V40.5H30V33Z" fill="#FF638D"/>
<path d="M45 33H30V40.5H45V33Z" fill="white"/>
<path d="M60 33H45V40.5H60V33Z" fill="black"/>
<path d="M67.5 33H60V40.5H67.5V33Z" fill="#FF638D"/>
<path d="M82.5 33H75V40.5H82.5V33Z" fill="#CC0595"/>
<path d="M97.5 33H82.5V40.5H97.5V33Z" fill="white"/>
<path d="M112.5 33H97.5V40.5H112.5V33Z" fill="black"/>
<path d="M120 33H112.5V40.5H120V33Z" fill="#CC0595"/>
<path d="M67.5 40.5H22.5V48H67.5V40.5Z" fill="#FF638D"/>
<path d="M120 40.5H75V48H120V40.5Z" fill="#CC0595"/>
</g>
<path d="M132.902 14.6903C134.214 13.7092 136.462 13.7715 137.566 14.8928C140.355 17.7272 142 21.2156 142 25C142 28.7844 140.355 32.2728 137.566 35.1072C136.462 36.2285 134.235 36.2908 132.902 35.3097C131.778 34.4843 131.716 33.1761 132.652 32.2261C134.675 30.1209 135.761 27.5926 135.754 25C135.754 22.3058 134.609 19.814 132.652 17.7739C131.736 16.8239 131.799 15.5157 132.902 14.6903Z" fill="#AB36BE"/>
<path d="M143.083 7.19235C144.657 5.49767 147.355 5.60527 148.679 7.54205C152.026 12.4378 154 18.4634 154 25C154 31.5366 152.026 37.5622 148.679 42.458C147.355 44.3947 144.682 44.5023 143.083 42.8077C141.734 41.382 141.659 39.1224 142.783 37.4815C145.21 33.8452 146.513 29.4782 146.505 25C146.505 20.3463 145.131 16.0424 142.783 12.5185C141.684 10.8776 141.759 8.61804 143.083 7.19235Z" fill="#FF638D"/>
<path d="M155.083 1.56888C156.657 -0.660966 159.355 -0.519388 160.679 2.02901C164.026 8.4708 166 16.3992 166 25C166 33.6008 164.026 41.5292 160.679 47.971C159.355 50.5194 156.682 50.661 155.083 48.4311C153.734 46.5552 153.659 43.5821 154.783 41.423C157.21 36.6385 158.513 30.8924 158.505 25C158.505 18.8768 157.131 13.2137 154.783 8.57698C153.684 6.41792 153.759 3.44479 155.083 1.56888Z" fill="#CC0595"/>
<defs>
<clipPath id="clip0_1179_1413">
<rect width="120" height="45" fill="white" transform="translate(0 3)"/>
</clipPath>
</defs>
</svg>

<svg
            xmlns="http://www.w3.org/2000/svg"
            width="166"
            height="50"
            fill="none"
            viewBox="0 0 166 50"
          >
            <g clip-path="url(#a)">
              <path fill="#FF638D" d="M67.5 3h-45v7.5h45V3Z" shapeRendering="crispEdges"/>
              <path fill="#CC0595" d="M120 3H75v7.5h45V3Z" shapeRendering="crispEdges"/>
              <path fill="#FF638D" d="M30 10.5h-7.5V18H30v-7.5Z" shapeRendering="crispEdges"/>
              <path fill="#fff" d="M45 10.5H30V18h15v-7.5Z" shapeRendering="crispEdges"/>
              <path fill="#000" d="M60 10.5H45V18h15v-7.5Z" shapeRendering="crispEdges"/>
              <path fill="#FF638D" d="M67.5 10.5H60V18h7.5v-7.5Z" shapeRendering="crispEdges"/>
              <path fill="#CC0595" d="M82.5 10.5H75V18h7.5v-7.5Z" shapeRendering="crispEdges"/>
              <path fill="#fff" d="M97.5 10.5h-15V18h15v-7.5Z" shapeRendering="crispEdges"/>
              <path fill="#000" d="M112.5 10.5h-15V18h15v-7.5Z" shapeRendering="crispEdges"/>
              <path
                fill="#CC0595"
                d="M120 10.5h-7.5V18h7.5v-7.5ZM22.5 18H0v7.5h22.5V18Z"
                shapeRendering="crispEdges"
              />
              <path fill="#FF638D" d="M30 18h-7.5v7.5H30V18Z" shapeRendering="crispEdges"/>
              <path fill="#fff" d="M45 18H30v7.5h15V18Z" shapeRendering="crispEdges"/>
              <path fill="#000" d="M60 18H45v7.5h15V18Z" shapeRendering="crispEdges"/>
              <path fill="#FF638D" d="M67.5 18H60v7.5h7.5V18Z" shapeRendering="crispEdges"/>
              <path fill="#CC0595" d="M82.5 18h-15v7.5h15V18Z" shapeRendering="crispEdges"/>
              <path fill="#fff" d="M97.5 18h-15v7.5h15V18Z" shapeRendering="crispEdges"/>
              <path fill="#000" d="M112.5 18h-15v7.5h15V18Z" shapeRendering="crispEdges"/>
              <path
                fill="#CC0595"
                d="M120 18h-7.5v7.5h7.5V18ZM7.5 25.5H0V33h7.5v-7.5Z"
                shapeRendering="crispEdges"
              />
              <path fill="#FF638D" d="M30 25.5h-7.5V33H30v-7.5Z" shapeRendering="crispEdges"/>
              <path fill="#fff" d="M45 25.5H30V33h15v-7.5Z" shapeRendering="crispEdges"/>
              <path fill="#000" d="M60 25.5H45V33h15v-7.5Z" shapeRendering="crispEdges"/>
              <path fill="#FF638D" d="M67.5 25.5H60V33h7.5v-7.5Z" shapeRendering="crispEdges"/>
              <path fill="#CC0595" d="M82.5 25.5H75V33h7.5v-7.5Z" shapeRendering="crispEdges"/>
              <path fill="#fff" d="M97.5 25.5h-15V33h15v-7.5Z" shapeRendering="crispEdges"/>
              <path fill="#000" d="M112.5 25.5h-15V33h15v-7.5Z" shapeRendering="crispEdges"/>
              <path
                fill="#CC0595"
                d="M120 25.5h-7.5V33h7.5v-7.5ZM7.5 33H0v7.5h7.5V33Z"
                shapeRendering="crispEdges"
              />
              <path fill="#FF638D" d="M30 33h-7.5v7.5H30V33Z" shapeRendering="crispEdges"/>
              <path fill="#fff" d="M45 33H30v7.5h15V33Z" shapeRendering="crispEdges"/>
              <path fill="#000" d="M60 33H45v7.5h15V33Z" shapeRendering="crispEdges"/>
              <path fill="#FF638D" d="M67.5 33H60v7.5h7.5V33Z" shapeRendering="crispEdges"/>
              <path fill="#CC0595" d="M82.5 33H75v7.5h7.5V33Z" shapeRendering="crispEdges"/>
              <path fill="#fff" d="M97.5 33h-15v7.5h15V33Z" shapeRendering="crispEdges"/>
              <path fill="#000" d="M112.5 33h-15v7.5h15V33Z" shapeRendering="crispEdges"/>
              <path fill="#CC0595" d="M120 33h-7.5v7.5h7.5V33Z" shapeRendering="crispEdges"/>
              <path fill="#FF638D" d="M67.5 40.5h-45V48h45v-7.5Z" shapeRendering="crispEdges"/>
              <path fill="#CC0595" d="M120 40.5H75V48h45v-7.5Z" shapeRendering="crispEdges"/>
            </g>
            <path
              fill="#AB36BE"
              d="M132.902 14.69c1.312-.98 3.56-.918 4.664.203C140.355 17.727 142 21.216 142 25c0 3.784-1.645 7.273-4.434 10.107-1.104 1.121-3.331 1.184-4.664.203-1.124-.826-1.186-2.134-.25-3.084 2.023-2.105 3.109-4.633 3.102-7.226 0-2.694-1.145-5.186-3.102-7.226-.916-.95-.853-2.258.25-3.084Z"
            />
            <path
              fill="#FF638D"
              d="M143.083 7.192c1.574-1.694 4.272-1.587 5.596.35C152.026 12.438 154 18.463 154 25c0 6.537-1.974 12.562-5.321 17.458-1.324 1.937-3.997 2.044-5.596.35-1.349-1.426-1.424-3.686-.3-5.327 2.427-3.636 3.73-8.003 3.722-12.481 0-4.654-1.374-8.958-3.722-12.482-1.099-1.64-1.024-3.9.3-5.326Z"
            />
            <path
              fill="#CC0595"
              d="M155.083 1.569c1.574-2.23 4.272-2.088 5.596.46C164.026 8.471 166 16.399 166 25c0 8.6-1.974 16.53-5.321 22.971-1.324 2.548-3.997 2.69-5.596.46-1.349-1.876-1.424-4.849-.3-7.008 2.427-4.785 3.73-10.53 3.722-16.423 0-6.123-1.374-11.786-3.722-16.423-1.099-2.16-1.024-5.132.3-7.008Z"
            />
            <defs>
              <clipPath id="a">
                <path
                  fill="#fff"
                  d="M0 0h120v45H0z"
                  transform="translate(0 3)"
                />
              </clipPath>
            </defs>
          </svg>
